icons/city_worker.svg

<svg width="48" height="48" viewBox="0 0 48 48" fill="none" xmlns="http://www.w3.org/2000/svg">
<path fill-rule="evenodd" clip-rule="evenodd" d="M24 26C29.525 26 34 21.525 34 16C34 10.475 29.525 6 24 6C18.475 6 14 10.475 14 16C14 21.525 18.475 26 24 26ZM32 16C32 20.4204 28.4204 24 24 24C19.5796 24 16 20.4204 16 16C16 11.5796 19.5796 8 24 8C28.4204 8 32 11.5796 32 16Z" fill="black"/>
<path fill-rule="evenodd" clip-rule="evenodd" d="M29.0351 27.8744L26 36.5449V36L25.4255 31.9786C25.7941 31.901 26.0952 31.6194 26.1894 31.2425L26.6894 29.2425C26.8472 28.6114 26.3698 28 25.7192 28H22.2808C21.6302 28 21.1528 28.6114 21.3106 29.2425L21.8106 31.2425C21.9048 31.6194 22.2059 31.901 22.5745 31.9786L22.0127 35.9109L18.9592 27.8627L18.9384 27.8205C18.634 27.201 17.9419 26.8629 17.263 27.0285C16.9216 27.1118 16.546 27.1997 16.1491 27.2926C15.2116 27.512 14.1554 27.7592 13.1529 28.0383C11.7396 28.4317 10.2761 28.928 9.25912 29.5958C7.38654 30.8254 6 32.4531 6 34.5V42H42V34.5C42 32.4531 40.6135 30.8254 38.7409 29.5958C37.7239 28.928 36.2604 28.4317 34.8471 28.0382C33.8444 27.7591 32.7885 27.512 31.8508 27.2925C31.454 27.1997 31.0783 27.1117 30.7369 27.0285C30.058 26.8629 29.366 27.201 29.0616 27.8205L29.0351 27.8744ZM31.4438 29.2515C31.2012 29.1947 30.963 29.139 30.7307 29.0839L26.9095 40H40V34.5C40 33.4539 39.2959 32.3528 37.6431 31.2676C36.9089 30.7855 35.7125 30.3552 34.3107 29.965C33.3494 29.6974 32.3655 29.4671 31.4448 29.2518L31.4438 29.2515ZM17.2822 29.0808L21.4251 40H8V34.5C8 33.4539 8.70414 32.3528 10.3569 31.2676C11.0911 30.7855 12.2875 30.3552 13.6893 29.965C14.6506 29.6974 15.6345 29.4672 16.5551 29.2518C16.8026 29.1939 17.0455 29.137 17.2822 29.0808Z" fill="black"/>
</svg>

<svg
  xmlns="http://www.w3.org/2000/svg"
  width="24"
  height="24"
  viewBox="0 0 24 24"
  fill="none"
  stroke="currentColor"
  stroke-width="2"
  stroke-linecap="round"
  stroke-linejoin="round"
>
  <path
    fill-rule="evenodd"
    d="M24 26c5.525 0 10-4.475 10-10S29.525 6 24 6s-10 4.475-10 10 4.475 10 10 10m8-10c0 4.42-3.58 8-8 8s-8-3.58-8-8 3.58-8 8-8 8 3.58 8 8"
    clip-rule="evenodd"
  />
  <path
    fill-rule="evenodd"
    d="M29.035 27.874 26 36.544V36l-.575-4.021a1 1 0 0 0 .764-.736l.5-2A1 1 0 0 0 25.72 28h-3.438a1 1 0 0 0-.97 1.242l.5 2a1 1 0 0 0 .764.737l-.562 3.932-3.054-8.048-.02-.043a1.48 1.48 0 0 0-1.676-.791c-.341.083-.717.17-1.114.264-.937.219-1.994.466-2.996.745-1.413.394-2.877.89-3.894 1.558C7.387 30.826 6 32.453 6 34.5V42h36v-7.5c0-2.047-1.386-3.675-3.26-4.904-1.016-.668-2.48-1.164-3.893-1.558-1.003-.279-2.059-.526-2.996-.745a127 127 0 0 1-1.114-.264 1.48 1.48 0 0 0-1.675.791zm2.409 1.378-.713-.168L26.909 40H40v-5.5c0-1.046-.704-2.147-2.357-3.232-.734-.483-1.93-.913-3.332-1.303a71 71 0 0 0-2.866-.713zm-14.162-.171L21.425 40H8v-5.5c0-1.046.704-2.147 2.357-3.232.734-.483 1.93-.913 3.332-1.303.962-.268 1.945-.498 2.866-.713z"
    clip-rule="evenodd"
  />
</svg>
